src/kakao.svg

<svg width="42" height="42" viewBox="0 0 42 42" fill="none" xmlns="http://www.w3.org/2000/svg">
<g id="ri:kakao-talk-fill">
<path id="Vector" d="M21 5.25C31.15 5.25 39.3768 11.662 39.3768 19.5738C39.3768 27.4838 31.15 33.8957 21.0018 33.8957C19.9913 33.8962 18.9818 33.8319 17.9795 33.7033L10.2655 38.7485C9.38877 39.2122 9.07902 39.1615 9.43952 38.0257L11.0005 31.5893C5.96052 29.0343 2.62677 24.6068 2.62677 19.5738C2.62677 11.6638 10.8518 5.25 21.0018 5.25M31.3408 19.355L33.9133 16.863C34.0617 16.7088 34.1445 16.5031 34.1443 16.2891C34.144 16.0751 34.0607 15.8695 33.9119 15.7157C33.7631 15.5619 33.5604 15.4719 33.3465 15.4646C33.1326 15.4572 32.9242 15.5332 32.7653 15.6765L29.3913 18.942V16.2435C29.3913 16.0244 29.3042 15.8143 29.1493 15.6594C28.9944 15.5045 28.7843 15.4175 28.5653 15.4175C28.3462 15.4175 28.1361 15.5045 27.9812 15.6594C27.8263 15.8143 27.7393 16.0244 27.7393 16.2435V20.7182C27.7084 20.8459 27.7084 20.9791 27.7393 21.1067V23.625C27.7393 23.8441 27.8263 24.0542 27.9812 24.2091C28.1361 24.364 28.3462 24.451 28.5653 24.451C28.7843 24.451 28.9944 24.364 29.1493 24.2091C29.3042 24.0542 29.3913 23.8441 29.3913 23.625V21.2397L30.1385 20.517L32.6375 24.0747C32.6999 24.1636 32.7792 24.2392 32.8708 24.2974C32.9625 24.3556 33.0647 24.3952 33.1716 24.4139C33.2785 24.4325 33.3881 24.43 33.494 24.4063C33.6 24.3827 33.7002 24.3384 33.789 24.276C33.8778 24.2136 33.9535 24.1343 34.0117 24.0427C34.0699 23.9511 34.1094 23.8489 34.1281 23.7419C34.1468 23.635 34.1443 23.5254 34.1206 23.4195C34.097 23.3136 34.0527 23.2133 33.9903 23.1245L31.3408 19.355ZM26.1643 22.722H23.6093V16.2697C23.5995 16.0575 23.5083 15.8572 23.3546 15.7104C23.2009 15.5636 22.9966 15.4818 22.7841 15.4818C22.5717 15.4818 22.3673 15.5636 22.2137 15.7104C22.06 15.8572 21.9688 16.0575 21.959 16.2697V23.548C21.959 24.003 22.3265 24.374 22.7833 24.374H26.1643C26.3833 24.374 26.5934 24.287 26.7483 24.1321C26.9032 23.9772 26.9903 23.7671 26.9903 23.548C26.9903 23.3289 26.9032 23.1188 26.7483 22.9639C26.5934 22.809 26.3833 22.722 26.1643 22.722ZM15.9145 20.8127L17.1325 17.8238L18.249 20.811L15.9145 20.8127ZM20.3298 21.665L20.3333 21.637C20.3329 21.4289 20.2534 21.2287 20.111 21.077L18.2805 16.177C18.2038 15.9435 18.0576 15.739 17.8616 15.5907C17.6655 15.4425 17.4289 15.3577 17.1833 15.3475C16.9359 15.3464 16.694 15.4207 16.4899 15.5604C16.2858 15.7002 16.129 15.8987 16.0405 16.1298L13.132 23.261C13.0492 23.4638 13.0503 23.6913 13.1351 23.8933C13.22 24.0953 13.3816 24.2553 13.5844 24.3381C13.7872 24.421 14.0146 24.4199 14.2166 24.335C14.4186 24.2502 14.5787 24.0886 14.6615 23.8857L15.2425 22.463H18.865L19.3865 23.863C19.4221 23.9676 19.4783 24.0641 19.5518 24.1466C19.6254 24.2291 19.7147 24.2961 19.8146 24.3434C19.9144 24.3908 20.0228 24.4177 20.1332 24.4224C20.2436 24.4271 20.3539 24.4096 20.4574 24.371C20.561 24.3323 20.6557 24.2733 20.736 24.1973C20.8164 24.1214 20.8806 24.0301 20.925 23.9289C20.9694 23.8277 20.993 23.7186 20.9945 23.6081C20.996 23.4975 20.9752 23.3879 20.9335 23.2855L20.3298 21.665ZM14.5145 16.2785C14.5145 16.0597 14.4277 15.8499 14.2732 15.695C14.1187 15.5402 13.909 15.453 13.6903 15.4525H8.01152C7.79245 15.4525 7.58236 15.5395 7.42745 15.6944C7.27254 15.8493 7.18552 16.0594 7.18552 16.2785C7.18552 16.4976 7.27254 16.7077 7.42745 16.8626C7.58236 17.0175 7.79245 17.1045 8.01152 17.1045H10.0415V23.6425C10.0415 23.8616 10.1285 24.0717 10.2834 24.2266C10.4384 24.3815 10.6485 24.4685 10.8675 24.4685C11.0866 24.4685 11.2967 24.3815 11.4516 24.2266C11.6065 24.0717 11.6935 23.8616 11.6935 23.6425V17.1045H13.6885C13.9076 17.1045 14.1177 17.0175 14.2726 16.8626C14.4275 16.7077 14.5145 16.4976 14.5145 16.2785Z" fill="black"/>
</g>
</svg>

<svg xmlns="http://www.w3.org/2000/svg" width="42" height="42" fill="none"><path fill="#000" d="M21 5.25c10.15 0 18.377 6.412 18.377 14.324 0 7.91-8.227 14.322-18.375 14.322q-1.517 0-3.022-.193l-7.715 5.045c-.876.464-1.186.413-.825-.722L11 31.589c-5.04-2.555-8.373-6.982-8.373-12.015 0-7.91 8.225-14.324 18.375-14.324M31.34 19.355l2.572-2.492a.826.826 0 0 0-1.148-1.186l-3.374 3.265v-2.698a.826.826 0 0 0-1.652 0v4.474a.8.8 0 0 0 0 .389v2.518a.826.826 0 1 0 1.652 0V21.24l.748-.723 2.499 3.558a.826.826 0 1 0 1.352-.95zm-5.177 3.367H23.61V16.27a.826.826 0 0 0-1.65 0v7.278c0 .455.367.826.824.826h3.381a.826.826 0 0 0 0-1.652m-10.25-1.91 1.219-2.988 1.116 2.987zm4.416.853.003-.028a.82.82 0 0 0-.222-.56l-1.83-4.9a1.21 1.21 0 0 0-1.098-.83 1.22 1.22 0 0 0-1.142.783l-2.909 7.131a.827.827 0 0 0 1.53.625l.58-1.423h3.623l.522 1.4a.827.827 0 1 0 1.546-.578zm-5.815-5.386a.826.826 0 0 0-.825-.826H8.012a.826.826 0 1 0 0 1.652h2.03v6.537a.826.826 0 1 0 1.652 0v-6.537h1.994a.826.826 0 0 0 .826-.826"/></svg>
